X: 5
T: The Hag At The Churn
R: jig
M: 6/8
L: 1/8
K: Gmix
|:d2c dGG|d2c dgf|d2c dGG|ABc ABc|
de/d/c dGG|de/d/c dgf|de/d/c dGG|ABc ABc||
|:dge f3|dgg abc'|dge f2c|A3 cAG|
dge f3|dgg abc'|bc'a gfd|cAB cAG||


Tune 829	Setting 28298

